static/img/icons/instagram.svg

<?xml version="1.0" encoding="UTF-8" standalone="no"?>
<svg xmlns:svg="http://www.w3.org/2000/svg" xmlns="http://www.w3.org/2000/svg" viewBox="0 0 512 512" version="1.1">
  <g fill="#fff">
    <path d="M 126.38558,439.32202 H 385.6144 c 29.61472,0 53.70762,-24.0929 53.70762,-53.70762 V 126.38558 c 0,-29.614715 -24.0929,-53.707618 -53.70762,-53.707618 H 126.38558 c -29.614715,0 -53.707618,24.092903 -53.707618,53.707618 V 385.6144 c 0,29.61472 24.092903,53.70762 53.707618,53.70762 z M 94.161015,126.38558 c 0,-17.76827 14.456295,-32.224565 32.224565,-32.224565 H 385.6144 c 17.76827,0 32.22456,14.456295 32.22456,32.224565 V 385.6144 c 0,17.76827 -14.45629,32.22456 -32.22456,32.22456 H 126.38558 c -17.76827,0 -32.224565,-14.45629 -32.224565,-32.22456 z m 0,0" />
    <path d="m 255.99999,352.67371 c 53.30481,0 96.67372,-43.36891 96.67372,-96.67372 0,-53.30482 -43.36891,-96.67373 -96.67372,-96.67373 -53.30482,0 -96.67373,43.36891 -96.67373,96.67373 0,53.30481 43.36891,96.67372 96.67373,96.67372 z m 0,-171.86439 c 41.46117,0 75.19067,33.72951 75.19067,75.19067 0,41.46117 -33.7295,75.19067 -75.19067,75.19067 -41.46116,0 -75.19067,-33.7295 -75.19067,-75.19067 0,-41.46116 33.72951,-75.19067 75.19067,-75.19067 z m 0,0" />
    <path d="m 363.41524,173.65741 c 13.82479,0 25.07267,-11.24788 25.07267,-25.07267 0,-13.8248 -11.24788,-25.07268 -25.07267,-25.07268 -13.82479,0 -25.07268,11.24788 -25.07268,25.07268 0,13.82479 11.24789,25.07267 25.07268,25.07267 z" />
  </g>
</svg>

<?xml version="1.0" encoding="UTF-8" standalone="no"?>
<svg
   xmlns:dc="http://purl.org/dc/elements/1.1/"
   xmlns:cc="http://creativecommons.org/ns#"
   xmlns:rdf="http://www.w3.org/1999/02/22-rdf-syntax-ns#"
   xmlns:svg="http://www.w3.org/2000/svg"
   xmlns="http://www.w3.org/2000/svg"
   id="svg989"
   version="1.1"
   viewBox="0 0 512 512">
  <metadata
     id="metadata995">
    <rdf:RDF>
      <cc:Work
         rdf:about="">
        <dc:format>image/svg+xml</dc:format>
        <dc:type
           rdf:resource="http://purl.org/dc/dcmitype/StillImage" />
        <dc:title></dc:title>
      </cc:Work>
    </rdf:RDF>
  </metadata>
  <defs
     id="defs993" />
  <path
     id="path981"
     d="M 126.38477 72.677734 C 96.770047 72.677734 72.677734 96.770047 72.677734 126.38477 L 72.677734 385.61523 C 72.677734 415.22995 96.770047 439.32227 126.38477 439.32227 L 385.61523 439.32227 C 415.22995 439.32227 439.32227 415.22995 439.32227 385.61523 L 439.32227 126.38477 C 439.32227 96.770047 415.22995 72.677734 385.61523 72.677734 L 126.38477 72.677734 z M 363.41602 123.51172 C 377.24081 123.51172 388.48828 134.75918 388.48828 148.58398 C 388.48828 162.40877 377.24081 173.6582 363.41602 173.6582 C 349.59123 173.6582 338.3418 162.40877 338.3418 148.58398 C 338.3418 134.75918 349.59123 123.51172 363.41602 123.51172 z M 256 180.80859 C 297.46117 180.80859 331.19141 214.53884 331.19141 256 C 331.19141 297.46117 297.46117 331.19141 256 331.19141 C 214.53884 331.19141 180.80859 297.46117 180.80859 256 C 180.80859 214.53884 214.53884 180.80859 256 180.80859 z "
     style="fill:#ffffff" />
</svg>
